icons/Checkmark_filled.svg

<svg width="24" height="24" viewBox="0 0 24 24" fill="none" xmlns="http://www.w3.org/2000/svg">
<path fill-rule="evenodd" clip-rule="evenodd" d="M18.7709,6.01593c0.5434,0.42571 0.6389,1.21139 0.2132,1.75486l-7.8334,10.00001c-0.2328,0.2972 -0.5876,0.4733 -0.9651,0.479c-0.37755,0.0057 -0.73745,-0.1595 -0.97918,-0.4496l-4.16667,-5c-0.44195,-0.5304 -0.37029,-1.3186 0.16005,-1.7605c0.53035,-0.442 1.31856,-0.3703 1.76051,0.16l3.17629,3.8116l6.8794,-8.78216c0.4257,-0.54347 1.2114,-0.63893 1.7549,-0.21321z" fill="#002B51"/>
</svg>

<svg width="24" height="24" viewBox="0 0 24 24" fill="none" xmlns="http://www.w3.org/2000/svg">
<path fill-rule="evenodd" clip-rule="evenodd" d="M18.7709 6.01593C19.3143 6.44164 19.4098 7.22732 18.9841 7.77079L11.1507 17.7708C10.9179 18.068 10.5631 18.2441 10.1856 18.2498C9.80805 18.2555 9.44815 18.0903 9.20642 17.8002L5.03975 12.8002C4.5978 12.2698 4.66946 11.4816 5.1998 11.0397C5.73015 10.5977 6.51836 10.6694 6.96031 11.1997L10.1366 15.0113L17.016 6.22914C17.4417 5.68567 18.2274 5.59021 18.7709 6.01593Z" fill="#002B51"/>
</svg>
